contributed-vectors/glovo.svg

<svg xmlns="http://www.w3.org/2000/svg" xml:space="preserve" style="fill-rule:evenodd;clip-rule:evenodd;stroke-linejoin:round;stroke-miterlimit:2" viewBox="0 0 192 192"><path d="M164.5 21.5c0-5.519-4.481-10-10-10h-133c-5.519 0-10 4.481-10 10v133c0 5.519 4.481 10 10 10h133c5.519 0 10-4.481 10-10v-133Z" style="fill:#f9de81" transform="translate(8 8)"/><circle cx="96" cy="130.594" r="7.222" style="fill:#71a372" transform="matrix(.83464 0 0 .83464 15.875 19.111)"/><path d="M105.808 112.959c-2.13 2.922-5.689 4.674-9.498 4.674-3.808 0-7.368-1.752-9.497-4.674-7.654-10.545-17.15-25.052-17.15-32.136 0-14.707 11.94-26.647 26.647-26.647 14.707 0 26.648 11.94 26.648 26.647 0 7.084-9.496 21.591-17.15 32.136ZM96 103.408S82.434 86.76 82.434 80.719c0-7.487 6.079-13.566 13.566-13.566 7.487 0 13.566 6.079 13.566 13.566 0 6.041-13.566 22.689-13.566 22.689Z" style="fill:#71a372" transform="matrix(.83464 0 0 .90178 15.616 9.008)"/></svg>

<?xml version="1.0" encoding="UTF-8" standalone="no"?>
<!DOCTYPE svg PUBLIC "-//W3C//DTD SVG 1.1//EN" "http://www.w3.org/Graphics/SVG/1.1/DTD/svg11.dtd">
<svg width="100%" height="100%" viewBox="0 0 192 192" version="1.1" xmlns="http://www.w3.org/2000/svg" xmlns:xlink="http://www.w3.org/1999/xlink" xml:space="preserve" xmlns:serif="http://www.serif.com/" style="fill-rule:evenodd;clip-rule:evenodd;stroke-linejoin:round;stroke-miterlimit:2;">
    <g id="Layer1">
        <g transform="matrix(1,0,0,1,8,8)">
            <path d="M164.5,21.5C164.5,15.981 160.019,11.5 154.5,11.5L21.5,11.5C15.981,11.5 11.5,15.981 11.5,21.5L11.5,154.5C11.5,160.019 15.981,164.5 21.5,164.5L154.5,164.5C160.019,164.5 164.5,160.019 164.5,154.5L164.5,21.5Z" style="fill:rgb(249,222,129);"/>
        </g>
        <g transform="matrix(0.834637,0,0,0.834637,15.6158,12.6454)">
            <g transform="matrix(1,0,0,1,0.310303,7.74695)">
                <circle cx="96" cy="130.594" r="7.222" style="fill:rgb(113,163,114);"/>
            </g>
            <g transform="matrix(1,0,0,1.08044,0,-4.35802)">
                <path d="M105.808,112.959C103.678,115.881 100.119,117.633 96.31,117.633C92.502,117.633 88.942,115.881 86.813,112.959C79.159,102.414 69.663,87.907 69.663,80.823C69.663,66.116 81.603,54.176 96.31,54.176C111.017,54.176 122.958,66.116 122.958,80.823C122.958,87.907 113.462,102.414 105.808,112.959ZM96,103.408C96,103.408 82.434,86.76 82.434,80.719C82.434,73.232 88.513,67.153 96,67.153C103.487,67.153 109.566,73.232 109.566,80.719C109.566,86.76 96,103.408 96,103.408Z" style="fill:rgb(113,163,114);"/>
            </g>
        </g>
    </g>
</svg>
